X: 10512
T: OLD ZIP COON
C:
%R: reel
B: Elias Howe "The Musician's Companion" Part 1 1842 p.51 #2
S: http://imslp.org/wiki/The_Musician's_Companion_(Howe,_Elias)
Z: 2015 John Chambers <jc:trillian.mit.edu>
M: 2/4
L: 1/16
K: Bb
% - - - - - - - - - - - - - - - - - - - - - - - - -
(dc) |\
BABc B2 (DE) | FGFD F2 (Bc) | d2d2 dcBc | (d2c2)c2 (dc) |\
BABc B2 (DE) | FGFD F2 (Bc) | dcde fdBd | d2B2B2 :|
|: (Bc) |\
defg f2 (fe) | defg f2 (fd) | efga g2 (gf) | efga g2 (ga) |\
babg gfdf | dedB c2 (Bc) | d2dB cBGB | F2B2B2 :|
% - - - - - - - - - - - - - - - - - - - - - - - - -
